X: 10154
T: Dingle Regatta, The
R: slide
M: 12/8
K: Dmajor
|:gbg dgd|BdB GBG|FAF DEF|GA_B =Bde|
gbg dgd|BdB GBG|FAF DEF|G3 G3:|

